**kern	**kern	**dynam
*part1	*part1	*part1
*staff2	*staff1	*
*I"Piano	*	*
*clefF4	*clefG2	*
*k[b-e-a-]	*k[b-e-a-]	*
=1	=1	=1
*	*^	*
4GG: 4Bn:	4dd)	4d 4g	.
8G 8B	8f 8g	8ryy	f
*	*v	*v	*
=||	=||	=||
*k[]	*k[]	*
*	*^	*
4C 4c	(8ccL	4e	.
.	8g)	.	.
8F 8c	8aJ	8f	.
*	*v	*v	*
=	=	=
4C 4c	4e 4g	.
8C 8G	8c 8e	.
=	=	=
*	*^	*
4.FF 4.F	(8dL	4.A	.
.	8c)	.	.
.	8dJ	.	.
=	=	=	=
*^	*	*	*
4E	8EEL	(8eL	4G#X	.
.	8BB	8B)	.	.
8r	8EJ	8eJ	8r	.
*v	*v	*	*	*
*	*v	*v	*
=	=	=
8EEL	(4G#X 4B 4g#X	.
8BB	.	.
8EJ	8G# 8B 8e	.
=	=	=
8EEL	4G#X 4B	.
8BB	.	.
8EJ	8G# 8B 8e	.
=	=	=
*	*^	*
4EE 4E	8g#XL	4G#X 4B	.
.	8e	.	.
8EE 8E	8aJ	8A 8c	.
=	=	=	=
4EE 4E	4g#X)	4G#X 4B	.
8E 8B	8g# 8b	8ryy	p
*	*v	*v	*
=	=	=
*-	*-	*-
!!!system-decoration: {(s1,s2)}
